packages/core/src/svgs/ais.svg

<svg width="24" height="24" viewBox="0 0 24 24" fill="none" xmlns="http://www.w3.org/2000/svg">
<g clip-path="url(#clip0_31_5789)">
<path d="M0 0H24V24H0V0Z" fill="#F0F3FA"/>
<path d="M8.02706 15.3258C7.94134 14.3829 7.86849 12.3129 7.84277 11.4001C7.8942 11.1901 8.18563 11.0401 8.31849 10.9887C10.2899 10.9758 14.4085 10.9458 15.1456 10.9458C15.8785 10.9458 16.1313 11.3615 16.1656 11.5758C16.1142 11.8929 16.0113 12.9387 16.0113 14.5929C16.0113 16.6587 14.0313 20.1429 12.0299 20.1429C10.0285 20.1429 8.13849 16.5044 8.02706 15.3258Z" fill="url(#paint0_linear_31_5789)"/>
<path d="M10.4274 12.0731C9.7526 12.0377 9.0802 11.9662 8.41309 11.8588C8.78166 12.0688 10.0417 12.4802 12.1417 12.4802C14.7688 12.4802 15.8488 11.9745 15.8488 11.6659C15.8488 11.4131 15.6045 11.2674 15.4802 11.2202L15.1417 11.2931C15.168 11.3307 15.1815 11.3758 15.1802 11.4216C14.8288 12.1374 13.1488 12.2359 12.1374 12.2359C11.3359 12.2359 10.6631 12.1288 10.4231 12.0731H10.4274Z" fill="url(#paint1_linear_31_5789)"/>
<path d="M12.1243 12.1157C9.95569 12.1157 9.47569 11.5929 9.50569 11.3271H14.7343V11.4257C14.7685 11.6529 14.2928 12.1157 12.1243 12.1157Z" fill="#26203A"/>
<path d="M12.1244 11.8458C10.7015 11.8458 10.3844 11.503 10.4101 11.3315H13.8344V11.3915C13.8558 11.5415 13.543 11.8458 12.1201 11.8458H12.1244Z" fill="#4470D1"/>
<path d="M7.85554 11.4857C7.85554 11.3357 8.08268 11.1386 8.19839 11.0571L8.53268 11.1857L8.39125 11.8457C8.21464 11.806 8.04128 11.753 7.87268 11.6871C7.8577 11.6226 7.85192 11.5562 7.85554 11.49V11.4857Z" fill="#335CA7"/>
<path d="M8.19434 11.5413C8.19434 11.7041 8.36148 11.8327 8.44291 11.8755C8.87148 11.9484 9.87434 12.0941 10.4572 12.0855C9.34291 11.927 9.04291 11.477 9.03862 11.2713L8.48576 11.1855C8.39148 11.2327 8.19434 11.3784 8.19434 11.5413Z" fill="#496BAC"/>
<path d="M9.55736 11.3743L9.00879 11.2715C9.02165 11.5929 9.52307 12.2101 11.3959 12.0986C9.9945 12.0343 9.58736 11.5886 9.55307 11.3701L9.55736 11.3743Z" fill="#9EA3B6"/>
<path d="M11.3231 12.0985H10.5859C13.4917 12.5228 15.4245 11.8328 15.1374 11.2842L14.6445 11.3699C14.6488 12.0556 12.4331 12.1413 11.3231 12.0985Z" fill="url(#paint2_linear_31_5789)"/>
<path d="M14.3312 11.4128H9.8869C9.41976 11.4128 8.30119 11.2756 7.57261 10.7356C6.65119 10.0542 6.93833 8.27993 7.04119 7.8985C7.14404 7.52136 8.09547 4.28564 11.9869 4.28564C15.8826 4.28564 17.0869 7.79993 17.1298 8.33136V8.3485C17.2119 9.02188 17.0989 9.70468 16.804 10.3156C16.4783 11.0442 15.0426 11.3571 14.3312 11.4128Z" fill="url(#paint3_linear_31_5789)"/>
<path d="M13.5385 6.03873H10.5857C9.84851 6.03873 8.18994 6.21016 8.18994 7.80873C8.18994 9.4073 9.54423 11.023 11.9399 11.023C14.3357 11.023 15.7285 9.59587 15.7285 7.80873C15.7285 6.3773 14.2714 6.03016 13.5385 6.03873Z" fill="#FFFFBA"/>
<path d="M13.4872 6.12001H10.6286C9.91292 6.12001 8.31006 6.28287 8.31006 7.83429C8.31006 9.37715 9.62149 10.9372 11.9358 10.9372C14.2543 10.9372 15.6043 9.56572 15.6043 7.83001C15.6043 6.44572 14.1901 6.11572 13.4829 6.11572L13.4872 6.12001Z" fill="url(#paint4_linear_31_5789)"/>
<path d="M7.3112 7.3459C7.2212 7.35876 7.0712 7.80448 7.00691 8.02305C6.96405 8.2459 6.89548 8.78162 6.90405 9.16305C6.91262 9.54876 6.97691 9.66876 7.00691 9.67733C7.17834 9.67733 7.3112 9.16305 7.34977 8.7859C7.39262 8.41305 7.42691 7.32876 7.3112 7.3459Z" fill="#C9D3E8"/>
<path d="M7.32427 7.54262C7.24284 7.55547 7.10998 7.92833 7.05427 8.10833C7.02427 8.28833 6.95998 8.73405 6.96855 9.05119C6.97712 9.36833 7.02855 9.47119 7.05427 9.47976C7.20855 9.47976 7.32427 9.05119 7.35427 8.73833C7.39284 8.42976 7.42284 7.52976 7.32427 7.54262Z" fill="#251F38"/>
<path d="M6 7.26868C6 8.86725 6.49286 9.36868 6.74143 9.41582C7.23429 9.41582 7.13143 8.57154 7.06714 6.97297C7.00286 5.37439 6.79714 4.50439 6.66 4.50439C6.52286 4.50439 6.00429 5.27154 6.00429 7.26868H6Z" fill="url(#paint5_linear_31_5789)"/>
<path d="M6.85264 5.80713C6.41549 5.87999 6.10264 5.80713 6.06835 5.80713C6.01692 5.81999 6.03835 5.8757 6.05121 5.9057C6.09406 5.91856 6.21406 5.93999 6.41549 5.93999C6.66835 5.93999 6.82692 5.92284 6.85264 5.9057C6.86978 5.88856 6.86121 5.83284 6.85264 5.80713Z" fill="#FFFFBA"/>
<path d="M6.22725 8.80296C6.28297 8.64867 6.33868 8.4301 6.33868 8.1601C6.33868 7.77867 6.13725 7.50867 6.00439 7.38867C6.01297 8.03153 6.10725 8.4901 6.22725 8.80296Z" fill="url(#paint6_linear_31_5789)"/>
<path d="M16.6888 7.3459C16.7831 7.35876 16.9331 7.80448 16.9973 8.02305C17.0402 8.2459 17.1088 8.78162 17.1002 9.16305C17.0873 9.54876 17.0273 9.66876 16.9973 9.67733C16.8259 9.67733 16.6888 9.16305 16.6545 8.7859C16.6116 8.41305 16.5773 7.32876 16.6888 7.3459Z" fill="#C9D3E8"/>
<path d="M16.6798 7.54262C16.7612 7.55547 16.8941 7.92833 16.9455 8.10833C16.9798 8.28833 17.0441 8.73405 17.0312 9.05119C17.0269 9.36833 16.9712 9.47119 16.9455 9.47976C16.7955 9.47976 16.6798 9.05119 16.6455 8.73833C16.6112 8.42976 16.5812 7.52976 16.6798 7.54262Z" fill="#251F38"/>
<path d="M17.9998 7.26868C17.9998 8.86725 17.507 9.36868 17.2627 9.41582C16.7698 9.41582 16.8684 8.57154 16.937 6.97297C17.0012 5.37439 17.207 4.50439 17.3441 4.50439C17.4812 4.50439 17.9998 5.27154 17.9998 7.26868Z" fill="url(#paint7_linear_31_5789)"/>
<path d="M17.1514 5.80713C17.5885 5.87999 17.9014 5.80713 17.9357 5.80713C17.9871 5.81999 17.9657 5.8757 17.9485 5.9057C17.8306 5.93297 17.7095 5.9445 17.5885 5.93999C17.3357 5.93999 17.1771 5.92284 17.1514 5.9057C17.1299 5.88856 17.1428 5.83284 17.1514 5.80713Z" fill="#FFFFBA"/>
<path d="M17.7727 8.80296C17.7 8.59651 17.6637 8.37898 17.6656 8.1601C17.6656 7.77867 17.867 7.50867 17.9999 7.38867C18.0067 7.8697 17.9298 8.34824 17.7727 8.80296Z" fill="url(#paint8_linear_31_5789)"/>
<path d="M13.4058 6.21H10.7015C10.0244 6.21 8.50293 6.36857 8.50293 7.85572C8.50293 9.34715 9.74579 10.8471 11.9444 10.8471C14.1386 10.8471 15.4201 9.52286 15.4201 7.85572C15.4201 6.52715 14.0786 6.20572 13.4058 6.21Z" fill="url(#paint9_linear_31_5789)"/>
<path d="M15.0814 9.24414C14.1338 9.65895 13.1068 9.86083 12.0728 9.83557C10.6585 9.83557 9.61709 9.60843 8.97852 9.41128C9.53137 10.2384 10.5428 10.847 11.9442 10.847C13.4785 10.847 14.5628 10.2041 15.0814 9.24414Z" fill="#483D6F"/>
<path d="M9.84852 7.47018H9.11995C9.16379 7.2593 9.2798 7.07031 9.44799 6.93576C9.61618 6.80121 9.82602 6.72952 10.0414 6.73303L9.84852 7.47018ZM10.9199 6.73732H10.1185L9.95137 7.45732H10.9199V6.73732ZM9.09423 7.55161H9.83138L9.7628 7.8516H9.01709L9.09423 7.55161Z" fill="url(#paint10_linear_31_5789)"/>
<path d="M10.5428 9.10712C11.0564 9.10712 11.4728 8.66964 11.4728 8.12997C11.4728 7.59031 11.0564 7.15283 10.5428 7.15283C10.0292 7.15283 9.61279 7.59031 9.61279 8.12997C9.61279 8.66964 10.0292 9.10712 10.5428 9.10712Z" fill="url(#paint11_linear_31_5789)"/>
<path d="M13.6414 9.10712C14.1551 9.10712 14.5714 8.66964 14.5714 8.12997C14.5714 7.59031 14.1551 7.15283 13.6414 7.15283C13.1278 7.15283 12.7114 7.59031 12.7114 8.12997C12.7114 8.66964 13.1278 9.10712 13.6414 9.10712Z" fill="url(#paint12_linear_31_5789)"/>
<path d="M9.26157 6.35582C9.04728 6.09868 8.79014 5.61868 8.67871 5.37868L8.83728 5.25439C8.85443 5.41725 9.19728 6.01725 9.373 6.29582C9.34728 6.31725 9.29157 6.35582 9.26157 6.35582ZM14.6487 6.33868C14.9089 6.06258 15.1348 5.75607 15.3216 5.42582L15.1501 5.29725C15.1201 5.45582 14.743 6.00439 14.533 6.27011C14.5587 6.29154 14.6187 6.33439 14.6487 6.33868Z" fill="#FFFFBA"/>
<path d="M7.84271 11.9316V12.0302C7.79985 12.5274 7.70557 13.5474 7.70557 13.6288C7.70557 13.7102 7.89842 14.2374 7.997 14.4945C8.057 14.3274 8.177 13.8388 8.177 13.2259C8.177 12.6131 7.95414 12.1116 7.84271 11.9316Z" fill="#28233E"/>
<path d="M6.06006 15.7715C6.06006 17.5586 6.63434 18.12 6.9172 18.18C7.73577 18.18 8.03149 16.17 8.07434 15.1672C8.17292 14.0915 8.22006 11.9443 7.6372 11.9443C6.90863 11.9443 6.06006 13.5429 6.06006 15.7715Z" fill="url(#paint13_linear_31_5789)"/>
<path d="M6.22266 16.1014C6.22266 16.7271 6.39408 16.8899 6.48408 16.8942C6.69837 16.8942 6.69408 16.3371 6.66408 16.0585C6.66837 15.6471 6.63837 14.8242 6.48408 14.8242C6.29551 14.8242 6.22266 15.3214 6.22266 16.1014Z" fill="#829FD1"/>
<path d="M7.01143 16.2985C6.44571 16.2985 6.13714 16.3414 6.02571 16.3628L6 16.2342C6.12 16.2128 6.43714 16.1699 7.01143 16.1699C7.50857 16.1699 7.78286 16.2385 7.94571 16.2771L8.02286 16.2985L7.98857 16.4271C7.96278 16.4202 7.93706 16.4131 7.91143 16.4056C7.74429 16.3628 7.49143 16.2985 7.01143 16.2985Z" fill="#FFFFBA"/>
<path d="M17.8457 15.7715C17.8457 17.5586 17.2757 18.12 16.9886 18.18C16.1743 18.18 15.8743 16.17 15.8314 15.1672C15.7371 14.0915 15.69 11.9443 16.2728 11.9443C17.0014 11.9443 17.8457 13.5429 17.8457 15.7715Z" fill="url(#paint14_linear_31_5789)"/>
<path d="M17.6871 16.1014C17.6871 16.7271 17.5114 16.8899 17.4214 16.8942C17.2114 16.8942 17.2156 16.3371 17.2413 16.0585C17.2413 15.6471 17.2714 14.8242 17.4214 14.8242C17.6142 14.8242 17.6871 15.3214 17.6871 16.1014Z" fill="#829FD1"/>
<path d="M16.8943 16.2985C17.4643 16.2985 17.7729 16.3414 17.8801 16.3628L17.9101 16.2342C17.7901 16.2128 17.4686 16.1699 16.8943 16.1699C16.3972 16.1699 16.1272 16.2385 15.9601 16.2771L15.8872 16.2985L15.9172 16.4271L15.9943 16.4056C16.1658 16.3628 16.4143 16.2985 16.8943 16.2985Z" fill="#FFFFBA"/>
<path d="M10.4827 13.4873L9.89551 14.9359H10.2384L10.8212 13.5516C10.8284 13.5373 10.8394 13.5253 10.8531 13.517C10.8667 13.5087 10.8824 13.5043 10.8984 13.5044C10.9143 13.5043 10.93 13.5087 10.9437 13.517C10.9573 13.5253 10.9683 13.5373 10.9755 13.5516L11.5241 14.9359H11.8755L11.3055 13.4916C11.2721 13.41 11.2151 13.3403 11.1418 13.2914C11.0685 13.2425 10.9822 13.2167 10.8941 13.2173C10.7098 13.2173 10.5469 13.3244 10.4827 13.4873ZM12.1069 13.2173H12.4584V14.9359H12.1069V13.2216V13.2173ZM12.8184 14.9444V14.623H13.8469C13.9669 14.623 14.0655 14.5287 14.0655 14.4173C14.0633 14.3623 14.0396 14.3105 13.9995 14.2728C13.9594 14.2351 13.9062 14.2147 13.8512 14.2159H13.2941C13.0112 14.2159 12.7798 13.9973 12.7798 13.7273C12.7798 13.4573 13.0112 13.2387 13.2941 13.2387H14.2327V13.543H13.3112C13.1955 13.543 13.0969 13.633 13.0969 13.7444C13.0969 13.8516 13.1955 13.9416 13.3112 13.9416H13.8384C14.1341 13.9416 14.3698 14.1687 14.3698 14.443C14.3681 14.5109 14.353 14.5778 14.3254 14.6399C14.2977 14.7019 14.258 14.7579 14.2086 14.8045C14.1592 14.8511 14.101 14.8875 14.0375 14.9115C13.9739 14.9355 13.9063 14.9467 13.8384 14.9444H12.8184Z" fill="url(#paint15_linear_31_5789)"/>
</g>
<defs>
<linearGradient id="paint0_linear_31_5789" x1="16.1656" y1="12.0944" x2="9.03849" y2="17.6272" gradientUnits="userSpaceOnUse">
<stop stop-color="#89B9ED"/>
<stop offset="0.89" stop-color="#1B5CCF"/>
<stop offset="1" stop-color="#6095D0"/>
</linearGradient>
<linearGradient id="paint1_linear_31_5789" x1="9.53594" y1="12.1974" x2="15.4888" y2="12.1974" gradientUnits="userSpaceOnUse">
<stop stop-color="#6192E0"/>
<stop offset="1" stop-color="#97C1EF"/>
</linearGradient>
<linearGradient id="paint2_linear_31_5789" x1="11.0017" y1="12.287" x2="15.0174" y2="11.8756" gradientUnits="userSpaceOnUse">
<stop stop-color="#B9C5DE"/>
<stop offset="1" stop-color="#667AB0"/>
</linearGradient>
<linearGradient id="paint3_linear_31_5789" x1="12.034" y1="4.28564" x2="12.034" y2="11.4128" gradientUnits="userSpaceOnUse">
<stop stop-color="#72CDFF"/>
<stop offset="0.84" stop-color="#3856DC"/>
<stop offset="0.98" stop-color="#4A6DD8"/>
</linearGradient>
<linearGradient id="paint4_linear_31_5789" x1="11.9615" y1="6.11572" x2="11.9615" y2="10.9372" gradientUnits="userSpaceOnUse">
<stop stop-color="#8091BF"/>
<stop offset="1" stop-color="#D2DBED"/>
</linearGradient>
<linearGradient id="paint5_linear_31_5789" x1="6.56143" y1="4.50439" x2="6.56143" y2="9.41582" gradientUnits="userSpaceOnUse">
<stop stop-color="#72CDFF"/>
<stop offset="1" stop-color="#252B8C"/>
</linearGradient>
<linearGradient id="paint6_linear_31_5789" x1="6.17154" y1="7.38867" x2="6.17154" y2="8.80296" gradientUnits="userSpaceOnUse">
<stop stop-color="#32469F"/>
<stop offset="1" stop-color="#5EA3E0"/>
</linearGradient>
<linearGradient id="paint7_linear_31_5789" x1="17.4384" y1="4.50439" x2="17.4384" y2="9.41582" gradientUnits="userSpaceOnUse">
<stop stop-color="#72CDFF"/>
<stop offset="1" stop-color="#252B8C"/>
</linearGradient>
<linearGradient id="paint8_linear_31_5789" x1="17.8327" y1="7.38867" x2="17.8327" y2="8.80296" gradientUnits="userSpaceOnUse">
<stop stop-color="#32469F"/>
<stop offset="1" stop-color="#5EA3E0"/>
</linearGradient>
<linearGradient id="paint9_linear_31_5789" x1="8.50293" y1="7.71429" x2="15.2958" y2="7.71429" gradientUnits="userSpaceOnUse">
<stop stop-color="#27213B"/>
<stop offset="0.61" stop-color="#4A3F73"/>
<stop offset="1" stop-color="#28223C"/>
</linearGradient>
<linearGradient id="paint10_linear_31_5789" x1="9.96852" y1="6.73303" x2="9.83566" y2="8.10018" gradientUnits="userSpaceOnUse">
<stop stop-color="#9490A1"/>
<stop offset="1" stop-color="#9490A1" stop-opacity="0"/>
</linearGradient>
<linearGradient id="paint11_linear_31_5789" x1="10.5428" y1="7.15283" x2="10.5428" y2="9.10712" gradientUnits="userSpaceOnUse">
<stop stop-color="#FFF962"/>
<stop offset="1" stop-color="#FCBE43"/>
</linearGradient>
<linearGradient id="paint12_linear_31_5789" x1="13.6414" y1="7.15283" x2="13.6414" y2="9.10712" gradientUnits="userSpaceOnUse">
<stop stop-color="#FFF962"/>
<stop offset="1" stop-color="#FCBE43"/>
</linearGradient>
<linearGradient id="paint13_linear_31_5789" x1="7.0972" y1="11.9443" x2="7.0972" y2="18.18" gradientUnits="userSpaceOnUse">
<stop stop-color="#87B7FD"/>
<stop offset="1" stop-color="#325CA9"/>
</linearGradient>
<linearGradient id="paint14_linear_31_5789" x1="16.8086" y1="11.9443" x2="16.8086" y2="18.18" gradientUnits="userSpaceOnUse">
<stop stop-color="#87B7FD"/>
<stop offset="1" stop-color="#325CA9"/>
</linearGradient>
<linearGradient id="paint15_linear_31_5789" x1="10.1655" y1="14.6659" x2="14.0398" y2="14.6659" gradientUnits="userSpaceOnUse">
<stop stop-color="#C6AD40"/>
<stop offset="1" stop-color="#FFE45B"/>
</linearGradient>
<clipPath id="clip0_31_5789">
<rect width="24" height="24" fill="white"/>
</clipPath>
</defs>
</svg>

<svg xmlns="http://www.w3.org/2000/svg" width="24" height="24" fill="none" viewBox="0 0 24 24"><g clip-path="url(#a)"><path fill="#F0F3FA" d="M0 0h24v24H0z"/><path fill="url(#b)" d="M8.027 15.326c-.086-.943-.159-3.013-.184-3.926.051-.21.343-.36.475-.411 1.972-.013 6.09-.043 6.828-.043.732 0 .985.415 1.02.63-.052.317-.155 1.363-.155 3.017 0 2.066-1.98 5.55-3.981 5.55s-3.892-3.639-4.003-4.817"/><path fill="url(#c)" d="M10.427 12.073a19 19 0 0 1-2.014-.214c.369.21 1.629.621 3.729.621 2.627 0 3.707-.505 3.707-.814 0-.253-.245-.399-.369-.446l-.338.073q.04.059.038.129c-.351.715-2.031.814-3.043.814a8.6 8.6 0 0 1-1.714-.163z"/><path fill="#26203A" d="M12.124 12.116c-2.168 0-2.648-.523-2.618-.789h5.228v.099c.034.227-.441.69-2.61.69"/><path fill="#4470D1" d="M12.124 11.846c-1.423 0-1.74-.343-1.714-.514h3.424v.06c.022.15-.291.454-1.714.454z"/><path fill="#335CA7" d="M7.856 11.486c0-.15.227-.347.342-.429l.335.129-.142.66a3.6 3.6 0 0 1-.518-.159.7.7 0 0 1-.017-.197z"/><path fill="#496BAC" d="M8.194 11.541c0 .163.167.292.249.335.428.072 1.431.218 2.014.21-1.114-.159-1.414-.609-1.418-.815l-.553-.086c-.095.048-.292.193-.292.356"/><path fill="#9EA3B6" d="m9.557 11.374-.548-.103c.013.322.514.94 2.387.828-1.402-.065-1.809-.51-1.843-.729z"/><path fill="url(#d)" d="M11.323 12.099h-.737c2.906.424 4.839-.266 4.551-.815l-.492.086c.004.686-2.212.771-3.322.729"/><path fill="url(#e)" d="M14.331 11.413H9.887c-.467 0-1.586-.137-2.314-.677-.922-.682-.635-2.456-.532-2.838.103-.377 1.054-3.612 4.946-3.612 3.896 0 5.1 3.514 5.143 4.045v.018a3.54 3.54 0 0 1-.326 1.967c-.326.728-1.761 1.041-2.473 1.097"/><path fill="#FFFFBA" d="M13.539 6.039h-2.953c-.737 0-2.396.171-2.396 1.77s1.354 3.214 3.75 3.214 3.789-1.427 3.789-3.214c0-1.432-1.458-1.779-2.19-1.77"/><path fill="url(#f)" d="M13.487 6.12H10.63c-.716 0-2.319.163-2.319 1.714 0 1.543 1.311 3.103 3.626 3.103 2.318 0 3.668-1.371 3.668-3.107 0-1.384-1.414-1.714-2.121-1.714z"/><path fill="#C9D3E8" d="M7.311 7.346c-.09.013-.24.458-.304.677a6.6 6.6 0 0 0-.103 1.14c.009.386.073.506.103.514.171 0 .304-.514.343-.891.043-.373.077-1.457-.039-1.44"/><path fill="#251F38" d="M7.324 7.543c-.081.012-.214.385-.27.565-.03.18-.094.626-.085.943s.06.42.085.429c.155 0 .27-.429.3-.742.039-.308.069-1.208-.03-1.195"/><path fill="url(#g)" d="M6 7.269c0 1.598.493 2.1.741 2.147.493 0 .39-.844.326-2.443s-.27-2.469-.407-2.469-.656.768-.656 2.765z"/><path fill="#FFFFBA" d="M6.853 5.807c-.438.073-.75 0-.785 0-.051.013-.03.069-.017.099.043.013.163.034.364.034.253 0 .412-.017.438-.034.017-.017.008-.073 0-.099"/><path fill="url(#h)" d="M6.227 8.803c.056-.154.112-.373.112-.643 0-.381-.202-.651-.335-.771.009.643.103 1.101.223 1.414"/><path fill="#C9D3E8" d="M16.689 7.346c.094.013.244.458.308.677.043.223.112.759.103 1.14-.013.386-.073.506-.103.514-.171 0-.308-.514-.343-.891-.042-.373-.077-1.457.035-1.44"/><path fill="#251F38" d="M16.68 7.543c.081.012.214.385.265.565.035.18.1.626.086.943-.004.317-.06.42-.085.429-.15 0-.266-.429-.3-.742-.035-.308-.065-1.208.034-1.195"/><path fill="url(#i)" d="M18 7.269c0 1.598-.493 2.1-.737 2.147-.493 0-.395-.844-.326-2.443.064-1.599.27-2.469.407-2.469S18 5.272 18 7.27"/><path fill="#FFFFBA" d="M17.151 5.807c.438.073.75 0 .785 0 .051.013.03.069.012.099a1.4 1.4 0 0 1-.36.034c-.252 0-.41-.017-.437-.034-.021-.017-.008-.073 0-.099"/><path fill="url(#j)" d="M17.773 8.803a1.9 1.9 0 0 1-.107-.643c0-.381.201-.651.334-.771.007.48-.07.96-.227 1.414"/><path fill="url(#k)" d="M13.406 6.21H10.7c-.677 0-2.198.159-2.198 1.646 0 1.491 1.243 2.991 3.441 2.991 2.195 0 3.476-1.324 3.476-2.991 0-1.329-1.341-1.65-2.014-1.646"/><path fill="#483D6F" d="M15.081 9.244a7.1 7.1 0 0 1-3.008.592c-1.415 0-2.456-.228-3.094-.425.552.827 1.564 1.436 2.965 1.436 1.534 0 2.619-.643 3.137-1.603"/><path fill="url(#l)" d="M9.849 7.47h-.73a.926.926 0 0 1 .922-.737zm1.07-.733h-.8l-.168.72h.969zm-1.825.815h.737l-.068.3h-.746z"/><path fill="url(#m)" d="M10.543 9.107c.513 0 .93-.437.93-.977s-.417-.977-.93-.977-.93.437-.93.977.416.977.93.977"/><path fill="url(#n)" d="M13.641 9.107c.514 0 .93-.437.93-.977s-.416-.977-.93-.977c-.513 0-.93.437-.93.977s.417.977.93.977"/><path fill="#FFFFBA" d="M9.262 6.356c-.215-.257-.472-.737-.583-.977l.158-.125c.017.163.36.763.536 1.042-.026.021-.081.06-.111.06m5.387-.017q.391-.416.673-.913l-.172-.129c-.03.159-.407.707-.617.973a.4.4 0 0 0 .116.069"/><path fill="#28233E" d="M7.843 11.932v.098c-.043.497-.137 1.517-.137 1.599 0 .081.192.608.291.866.06-.168.18-.656.18-1.27 0-.612-.223-1.113-.334-1.293"/><path fill="url(#o)" d="M6.06 15.772c0 1.787.574 2.348.857 2.408.819 0 1.114-2.01 1.157-3.013.099-1.075.146-3.223-.437-3.223-.728 0-1.577 1.599-1.577 3.827"/><path fill="#829FD1" d="M6.223 16.101c0 .626.171.789.261.793.214 0 .21-.557.18-.835.004-.412-.026-1.235-.18-1.235-.188 0-.261.497-.261 1.277"/><path fill="#FFFFBA" d="M7.011 16.299c-.565 0-.874.042-.985.064L6 16.234c.12-.021.437-.064 1.011-.064.498 0 .772.068.935.107l.077.021-.034.13-.078-.022a3.2 3.2 0 0 0-.9-.107"/><path fill="url(#p)" d="M17.846 15.772c0 1.787-.57 2.348-.857 2.408-.815 0-1.115-2.01-1.158-3.013-.094-1.075-.141-3.223.442-3.223.728 0 1.573 1.599 1.573 3.827"/><path fill="#829FD1" d="M17.687 16.101c0 .626-.176.789-.266.793-.21 0-.205-.557-.18-.835 0-.412.03-1.235.18-1.235.193 0 .266.497.266 1.277"/><path fill="#FFFFBA" d="M16.894 16.299c.57 0 .879.042.986.064l.03-.129c-.12-.021-.441-.064-1.016-.064-.497 0-.767.068-.934.107l-.073.021.03.13.077-.022c.172-.043.42-.107.9-.107"/><path fill="url(#q)" d="m10.483 13.487-.587 1.449h.342l.583-1.384a.09.09 0 0 1 .077-.048.09.09 0 0 1 .078.048l.548 1.384h.352l-.57-1.444a.44.44 0 0 0-.412-.275.44.44 0 0 0-.411.27m1.624-.27h.351v1.719h-.351v-1.719m.711 1.727v-.321h1.029c.12 0 .219-.094.219-.206a.21.21 0 0 0-.215-.201h-.557a.503.503 0 0 1-.514-.489c0-.27.231-.488.514-.488h.939v.304h-.922c-.116 0-.214.09-.214.201 0 .108.098.198.214.198h.527c.296 0 .532.227.532.501a.517.517 0 0 1-.532.501z"/></g><defs><linearGradient id="b" x1="16.166" x2="9.038" y1="12.094" y2="17.627" gradientUnits="userSpaceOnUse"><stop stop-color="#89B9ED"/><stop offset=".89" stop-color="#1B5CCF"/><stop offset="1" stop-color="#6095D0"/></linearGradient><linearGradient id="c" x1="9.536" x2="15.489" y1="12.197" y2="12.197" gradientUnits="userSpaceOnUse"><stop stop-color="#6192E0"/><stop offset="1" stop-color="#97C1EF"/></linearGradient><linearGradient id="d" x1="11.002" x2="15.017" y1="12.287" y2="11.876" gradientUnits="userSpaceOnUse"><stop stop-color="#B9C5DE"/><stop offset="1" stop-color="#667AB0"/></linearGradient><linearGradient id="e" x1="12.034" x2="12.034" y1="4.286" y2="11.413" gradientUnits="userSpaceOnUse"><stop stop-color="#72CDFF"/><stop offset=".84" stop-color="#3856DC"/><stop offset=".98" stop-color="#4A6DD8"/></linearGradient><linearGradient id="f" x1="11.961" x2="11.961" y1="6.116" y2="10.937" gradientUnits="userSpaceOnUse"><stop stop-color="#8091BF"/><stop offset="1" stop-color="#D2DBED"/></linearGradient><linearGradient id="g" x1="6.561" x2="6.561" y1="4.504" y2="9.416" gradientUnits="userSpaceOnUse"><stop stop-color="#72CDFF"/><stop offset="1" stop-color="#252B8C"/></linearGradient><linearGradient id="h" x1="6.172" x2="6.172" y1="7.389" y2="8.803" gradientUnits="userSpaceOnUse"><stop stop-color="#32469F"/><stop offset="1" stop-color="#5EA3E0"/></linearGradient><linearGradient id="i" x1="17.438" x2="17.438" y1="4.504" y2="9.416" gradientUnits="userSpaceOnUse"><stop stop-color="#72CDFF"/><stop offset="1" stop-color="#252B8C"/></linearGradient><linearGradient id="j" x1="17.833" x2="17.833" y1="7.389" y2="8.803" gradientUnits="userSpaceOnUse"><stop stop-color="#32469F"/><stop offset="1" stop-color="#5EA3E0"/></linearGradient><linearGradient id="k" x1="8.503" x2="15.296" y1="7.714" y2="7.714" gradientUnits="userSpaceOnUse"><stop stop-color="#27213B"/><stop offset=".61" stop-color="#4A3F73"/><stop offset="1" stop-color="#28223C"/></linearGradient><linearGradient id="l" x1="9.969" x2="9.836" y1="6.733" y2="8.1" gradientUnits="userSpaceOnUse"><stop stop-color="#9490A1"/><stop offset="1" stop-color="#9490A1" stop-opacity="0"/></linearGradient><linearGradient id="m" x1="10.543" x2="10.543" y1="7.153" y2="9.107" gradientUnits="userSpaceOnUse"><stop stop-color="#FFF962"/><stop offset="1" stop-color="#FCBE43"/></linearGradient><linearGradient id="n" x1="13.641" x2="13.641" y1="7.153" y2="9.107" gradientUnits="userSpaceOnUse"><stop stop-color="#FFF962"/><stop offset="1" stop-color="#FCBE43"/></linearGradient><linearGradient id="o" x1="7.097" x2="7.097" y1="11.944" y2="18.18" gradientUnits="userSpaceOnUse"><stop stop-color="#87B7FD"/><stop offset="1" stop-color="#325CA9"/></linearGradient><linearGradient id="p" x1="16.809" x2="16.809" y1="11.944" y2="18.18" gradientUnits="userSpaceOnUse"><stop stop-color="#87B7FD"/><stop offset="1" stop-color="#325CA9"/></linearGradient><linearGradient id="q" x1="10.165" x2="14.04" y1="14.666" y2="14.666" gradientUnits="userSpaceOnUse"><stop stop-color="#C6AD40"/><stop offset="1" stop-color="#FFE45B"/></linearGradient><clipPath id="a"><path fill="#fff" d="M0 0h24v24H0z"/></clipPath></defs></svg>
